X:1
T: The Chinese Tattoo
C:
R:Jig
Q:180
K:A
M:6/8
L:1/16
|:A2B2A2 c4A2|A2c2A2 a4e2|f2e2f2 a4e2|f2e2a2 f2e2c2|
A2B2A2 c4A2|A2B2A2 a6|f2e2a2 f2e2c2|e2c2A2 A6:|
|:f2e2f2 a4e2|f2e2f2 a4e2|f2e2f2 a2e2a2|f2e2a2 f2e2c2|
A2B2A2 c4A2|A2c2A2 a6|f2e2a2 f2e2c2|e2c2A2 A6:|
